X:1
T:John, John the Water Man
M:3/4
L:1/4
K:C
 z2 G| c c d| B/2B/2 G3/2 G/2| c A F| G/2G/2 E2| F A3/2 A/2| G/2G/2 E3/2 E/2|\
 F D3/2 D/2| G E2| F A3/2 A/2| G/2G/2 E2| F A3/2 A/2| G/2G/2 E2| F D3/2 E/2|\
 C3| c c2| d B3/2 B/2| c A F| A G2| F A3/2 A/2| G/2G/2 E2| F D3/2 D/2|\
 G2 C/2C/2| F A3/2 A/2| G/2G/2 E2| F D3/2 E/2| C2 z|
